img/insta.svg

<svg width="18" height="18" viewBox="0 0 18 18" fill="none" xmlns="http://www.w3.org/2000/svg">
<path d="M9 4.4917C6.5 4.4917 4.50781 6.52295 4.50781 8.98389C4.50781 11.4839 6.5 13.4761 9 13.4761C11.4609 13.4761 13.4922 11.4839 13.4922 8.98389C13.4922 6.52295 11.4609 4.4917 9 4.4917ZM9 11.9136C7.39844 11.9136 6.07031 10.6245 6.07031 8.98389C6.07031 7.38232 7.35938 6.09326 9 6.09326C10.6016 6.09326 11.8906 7.38232 11.8906 8.98389C11.8906 10.6245 10.6016 11.9136 9 11.9136ZM14.7031 4.33545C14.7031 3.74951 14.2344 3.28076 13.6484 3.28076C13.0625 3.28076 12.5938 3.74951 12.5938 4.33545C12.5938 4.92139 13.0625 5.39014 13.6484 5.39014C14.2344 5.39014 14.7031 4.92139 14.7031 4.33545ZM17.6719 5.39014C17.5938 3.98389 17.2812 2.73389 16.2656 1.71826C15.25 0.702637 14 0.390137 12.5938 0.312012C11.1484 0.233887 6.8125 0.233887 5.36719 0.312012C3.96094 0.390137 2.75 0.702637 1.69531 1.71826C0.679688 2.73389 0.367188 3.98389 0.289062 5.39014C0.210938 6.83545 0.210938 11.1714 0.289062 12.6167C0.367188 14.0229 0.679688 15.2339 1.69531 16.2886C2.75 17.3042 3.96094 17.6167 5.36719 17.6948C6.8125 17.7729 11.1484 17.7729 12.5938 17.6948C14 17.6167 15.25 17.3042 16.2656 16.2886C17.2812 15.2339 17.5938 14.0229 17.6719 12.6167C17.75 11.1714 17.75 6.83545 17.6719 5.39014ZM15.7969 14.1401C15.5234 14.9214 14.8984 15.5073 14.1562 15.8198C12.9844 16.2886 10.25 16.1714 9 16.1714C7.71094 16.1714 4.97656 16.2886 3.84375 15.8198C3.0625 15.5073 2.47656 14.9214 2.16406 14.1401C1.69531 13.0073 1.8125 10.2729 1.8125 8.98389C1.8125 7.73389 1.69531 4.99951 2.16406 3.82764C2.47656 3.08545 3.0625 2.49951 3.84375 2.18701C4.97656 1.71826 7.71094 1.83545 9 1.83545C10.25 1.83545 12.9844 1.71826 14.1562 2.18701C14.8984 2.46045 15.4844 3.08545 15.7969 3.82764C16.2656 4.99951 16.1484 7.73389 16.1484 8.98389C16.1484 10.2729 16.2656 13.0073 15.7969 14.1401Z" fill="white"/>
</svg>

<svg width="18" height="18" fill="none" xmlns="http://www.w3.org/2000/svg"><path d="M9 4.492a4.493 4.493 0 00-4.492 4.492c0 2.5 1.992 4.492 4.492 4.492a4.493 4.493 0 004.492-4.492c0-2.461-2.031-4.492-4.492-4.492zm0 7.422a2.926 2.926 0 01-2.93-2.93c0-1.602 1.29-2.89 2.93-2.89a2.882 2.882 0 012.89 2.89c0 1.64-1.288 2.93-2.89 2.93zm5.703-7.579a1.05 1.05 0 00-1.055-1.054 1.05 1.05 0 00-1.054 1.054 1.05 1.05 0 001.054 1.055 1.05 1.05 0 001.055-1.055zm2.969 1.055c-.078-1.406-.39-2.656-1.406-3.672C15.25.703 14 .39 12.594.312c-1.446-.078-5.781-.078-7.227 0C3.961.39 2.75.702 1.695 1.718.68 2.734.367 3.984.29 5.39c-.078 1.445-.078 5.781 0 7.227.078 1.406.39 2.617 1.406 3.672 1.055 1.015 2.266 1.328 3.672 1.406 1.446.078 5.781.078 7.227 0 1.406-.078 2.656-.39 3.672-1.406 1.015-1.055 1.328-2.266 1.406-3.672.078-1.446.078-5.782 0-7.227zm-1.875 8.75c-.274.781-.899 1.367-1.64 1.68-1.173.469-3.907.351-5.157.351-1.29 0-4.023.118-5.156-.351a2.962 2.962 0 01-1.68-1.68c-.469-1.133-.352-3.867-.352-5.156 0-1.25-.117-3.984.352-5.156a3.013 3.013 0 011.68-1.641C4.977 1.718 7.71 1.835 9 1.835c1.25 0 3.984-.117 5.156.352.742.273 1.328.898 1.64 1.64.47 1.173.352 3.907.352 5.157 0 1.289.118 4.023-.351 5.156z" fill="#fff"/></svg>
